X:114
T: EIN SCHAEFERMAEDCHEN WEIDETE
N: B0145
O: Europa, Mitteleuropa, Deutschland, Rheinland, Nassau
R: Ballade, Romanze
M: 6/8
L: 1/8
K: G
D | G2GGFG | A2AA2
A | B2BdcA | G2z3
D | G2GGFG | A2AA2
A | B2BdcA | G2z3
d | ^c2AABc | d2Af2
d | ^c2AABc | eddd2
d | B2z3d | c2z3
d | B2dB2d | B2z3

